X: 3
T: Lord McDonald's
R: reel
M: 4/4
L: 1/8
K: Gmaj
|GGGB dGGG|cABG AGEA|DGBG dGBd|gedc BGGF||GGGB dGGG|cGBG AGEG|BGAF GEDA|DEGA BGGF||BddB dBGB|defg aged|BddB dBGB|ABBA BGGG||BddB dBGB|defg aged|cdef gage|dBAc BGGG||dgbg agbg|dgbg ageg|dgbg agbg|dedc BGGG||dgbg agbg|dgbg ageg|bgaf gedB|dega bggg||BddB dBGB|defg aged|BddB d2ge|dBAc BGGG||BddB dBGB|defg aged|cdef gage|dBAc BGGG|


Tune 507	Setting 507

